assets/images/avatars/user/custom-avatars/season-f1/helmet-pink400.svg

<svg width="52" height="52" viewBox="0 0 52 52" fill="none" xmlns="http://www.w3.org/2000/svg">
<g clip-path="url(#clip0_26_81643)">
<rect width="52" height="52" fill="#F68DFE"/>
<path d="M26 52C40.3594 52 52 40.3594 52 26C52 11.6406 40.3594 0 26 0C11.6406 0 0 11.6406 0 26C0 40.3594 11.6406 52 26 52Z" fill="#F68DFE"/>
<path d="M25.9999 46.7669C37.4691 46.7669 46.7667 37.4693 46.7667 26.0002C46.7667 14.531 37.4691 5.2334 25.9999 5.2334C14.5308 5.2334 5.23315 14.531 5.23315 26.0002C5.23315 37.4693 14.5308 46.7669 25.9999 46.7669Z" fill="#F68DFE" stroke="#002140" stroke-width="0.65" stroke-miterlimit="10"/>
<path d="M37.1206 34.8539C37.0548 34.8782 36.9925 34.8989 36.9302 34.9266L36.8749 34.7812C37.0756 33.466 36.5322 31.995 35.3727 31.3443C34.2133 30.6902 32.4931 31.1401 32.005 32.3792C31.434 33.8398 32.6384 35.5254 32.1573 37.0206L32.3685 37.3529C31.1432 38.1282 29.9249 38.9346 28.6616 39.6441L28.5093 39.3707C28.8381 38.8792 28.852 38.2458 28.7689 37.6609C28.6408 36.761 28.2947 35.8611 27.6371 35.2312C26.9795 34.6013 25.9758 34.2932 25.1243 34.6116C24.0998 34.9924 23.5426 36.183 23.6153 37.2732C23.6706 38.1074 24.0271 38.9069 24.0237 39.7445C24.0237 40.5544 23.3591 41.6689 22.5562 41.6689V41.6931C20.7633 41.8489 18.9324 41.6239 17.2226 41.0493L17.3333 40.7344C17.4891 40.7309 17.6275 40.6409 17.7521 40.5475C18.7731 39.786 19.6419 38.7062 19.7942 37.4394C19.9465 36.1726 19.185 34.757 17.9356 34.4905C16.5615 34.1963 15.0698 35.2866 13.7891 34.7051L13.3357 34.7812C13.1004 33.3864 12.9239 31.9881 12.8339 30.5587C13.3773 30.8875 14.1041 31.2474 15.0628 31.5728C16.1635 31.9466 17.5721 32.2823 19.3581 32.4761C20.1091 32.5557 20.8429 32.58 21.5559 32.5557C27.3706 32.3931 31.7662 29.278 31.7662 29.278C31.7662 29.278 32.365 27.4886 32.5761 26.208C32.6004 26.0661 32.6211 25.9173 32.635 25.7615C32.7734 24.5121 32.7042 22.9269 32.7042 22.9269C31.9012 22.6811 30.9425 22.4631 29.8903 22.2727C28.4747 22.0131 26.886 21.802 25.2524 21.6359C22.9646 21.4005 20.5937 21.2517 18.5101 21.1755C16.5684 21.1029 14.8759 21.0994 13.7303 21.1479V21.134C14.7305 17.8079 16.5338 14.7413 19.1539 12.4708C19.4066 12.2527 19.6592 12.0416 19.9119 11.8478L19.9188 11.8582C19.1885 12.9588 18.9427 13.921 18.9497 15.1739C18.9531 16.4269 19.6488 17.7698 20.8533 18.1194C21.2409 18.2336 21.6528 18.2336 22.0578 18.237C22.4246 18.2405 22.8054 18.2405 23.148 18.1124C24.0998 17.7525 24.439 16.5549 24.3352 15.5477C24.2279 14.5371 23.8437 13.9729 23.8299 12.9588C23.8091 11.5432 24.3179 9.9061 25.2939 9.17234L25.2662 9.07889C25.7923 8.93698 26.3323 8.82969 26.8895 8.75008C31.0186 8.15131 35.3104 10.1241 37.8024 13.4745C39.2284 15.3885 40.1076 17.6452 40.5194 20.0022L40.4883 20.0091C40.2702 21.0786 39.2665 21.7778 38.3355 22.3489C37.4044 22.9165 36.3868 23.5741 36.0996 24.6263C35.8123 25.6923 36.4734 26.8933 37.484 27.3398C38.4739 27.7724 39.6853 27.5267 40.5194 26.831C40.1214 29.4269 39.3807 31.7631 38.5466 34.3521V34.4074C38.0655 34.5286 37.5879 34.6774 37.1206 34.8539ZM36.0857 19.5211C36.2622 19.1715 36.3038 18.7666 36.3038 18.3755C36.3038 16.7626 35.5942 15.1601 34.4002 14.0768C32.1954 12.0797 27.1006 11.9343 27.0833 15.9458C27.0833 16.5999 27.3221 17.306 27.8794 17.6417C28.7793 18.1851 29.9941 17.5552 30.9667 17.9428C31.8043 18.2786 32.185 19.2373 32.8496 19.8534C33.3099 20.2791 33.9398 20.5387 34.5663 20.4937C35.1962 20.4522 35.8054 20.0853 36.0857 19.5211Z" fill="#F9B5FE"/>
<path d="M21.5559 32.5555C20.843 32.5797 20.1092 32.5555 19.3581 32.4759C17.5722 32.282 16.1635 31.9463 15.0629 31.5725L15.0836 31.5171L29.8384 22.5632L29.8903 22.2725C30.9425 22.4628 31.9012 22.6809 32.7042 22.9266C32.7042 22.9266 32.7734 24.5118 32.635 25.7613L32.4619 25.744L21.549 32.2578L21.5559 32.5555Z" fill="#FCDCFF"/>
<path d="M11.5152 29.5344C11.3594 28.2192 11.3664 26.762 11.446 25.613H11.4702L18.5067 21.2208V21.1758C20.5937 21.2519 22.9646 21.4008 25.2524 21.6361L25.242 21.733L11.8959 29.704L11.7644 29.7698C11.6536 29.6729 11.574 29.5932 11.5152 29.5344Z" fill="#FCDCFF"/>
<path d="M37.138 34.9054C37.5672 35.2481 37.4426 35.9818 37.2591 36.1895C37.0757 36.4006 36.8023 36.5079 36.5427 36.6118C32.2751 38.3319 30.1846 41.3708 25.6747 42.2949C24.2211 42.5926 22.847 42.7345 21.3622 42.6653C20.0192 42.6064 18.5483 42.3676 17.3265 41.6996C17.1604 41.6096 16.6723 41.3881 16.8419 40.9174C16.9665 40.9624 17.0946 41.0074 17.2227 41.0489C18.9325 41.6235 20.7634 41.8485 22.5597 41.6927C23.3973 41.6235 24.228 41.4712 25.0379 41.2324C26.3081 40.8551 27.5022 40.2909 28.6617 39.6437C29.925 38.9342 31.1433 38.1277 32.3686 37.3525C32.4239 37.3178 32.4828 37.2798 32.5382 37.2451C33.933 36.366 35.3936 35.518 36.9303 34.9262C36.9926 34.8985 37.0549 34.8777 37.1207 34.8535L37.138 34.9054Z" fill="#002140"/>
<path d="M32.5762 26.2079C32.3651 27.4885 31.7663 29.278 31.7663 29.278C31.7663 29.278 27.3707 32.393 21.556 32.5556L21.5491 32.258L32.462 25.7441L32.6351 25.7614C32.6212 25.9172 32.6005 26.066 32.5762 26.2079Z" fill="#002140"/>
<path d="M29.8903 22.2726L29.8384 22.5633L15.0836 31.5173L15.0629 31.5726C14.1041 31.2473 13.3773 30.8873 12.8339 30.5551C12.3355 30.2539 11.9894 29.9771 11.7644 29.7694L11.8959 29.7036L25.242 21.7327L25.2524 21.6357C26.8861 21.8019 28.4747 22.013 29.8903 22.2726Z" fill="#002140"/>
<path d="M11.4702 25.2698C11.5982 23.778 12.0689 22.1167 12.28 21.3068C12.4877 21.2306 12.9965 21.1787 13.7303 21.1476C14.8759 21.0991 16.5684 21.1026 18.5101 21.1753V21.2203L11.4702 25.6124H11.4459C11.4528 25.4948 11.4598 25.3805 11.4702 25.2698Z" fill="#002140"/>
<path d="M13.7303 21.134C14.7306 17.8079 16.5339 14.7413 19.154 12.4708C19.4066 12.2527 19.6593 12.0416 19.9119 11.8478C21.6806 10.446 23.4007 9.57037 25.2663 9.07889C25.7924 8.93698 26.3323 8.82969 26.8896 8.75008C31.0187 8.15131 35.3105 10.1241 37.8025 13.4745C39.2285 15.3885 40.1076 17.6452 40.5195 20.0022C40.831 21.7674 40.8829 23.5879 40.7064 25.367C40.6579 25.8654 40.5956 26.3534 40.5195 26.831C40.1215 29.4269 39.3808 31.7631 38.5466 34.3521" stroke="#002140" stroke-width="0.65" stroke-linecap="round" stroke-linejoin="round"/>
<path d="M14.3706 39.6821C13.9657 38.0208 13.6092 36.401 13.3357 34.7812C13.1004 33.3863 12.9239 31.988 12.8339 30.5586" stroke="#002140" stroke-width="0.65" stroke-linecap="round" stroke-linejoin="round"/>
<path d="M14.4156 39.727C15.1806 40.2081 15.9939 40.6026 16.8419 40.9141C16.9665 40.9626 17.0946 41.0076 17.2226 41.0491C18.9324 41.6237 20.7633 41.8486 22.5597 41.6929C23.3973 41.6237 24.228 41.4714 25.0379 41.2326C26.3081 40.8553 27.5022 40.2911 28.6616 39.6439C29.925 38.9344 31.1433 38.1279 32.3685 37.3527C32.4239 37.318 32.4827 37.28 32.5381 37.2453C33.9329 36.3662 35.3935 35.5182 36.9303 34.9264C36.9926 34.8987 37.0549 34.8779 37.1206 34.8537C37.5879 34.6772 38.0655 34.5284 38.5501 34.4072" stroke="#002140" stroke-width="0.65" stroke-linecap="round" stroke-linejoin="round"/>
<path d="M11.446 25.6124C11.4529 25.4948 11.4598 25.3805 11.4702 25.2698C11.5983 23.778 12.069 22.1167 12.2801 21.3068C12.4878 21.2306 12.9965 21.1787 13.7303 21.1476C14.8759 21.0991 16.5684 21.1026 18.5101 21.1753C20.5937 21.2514 22.9646 21.4002 25.2524 21.6356C26.8861 21.8017 28.4747 22.0129 29.8903 22.2724C30.9425 22.4628 31.9012 22.6808 32.7042 22.9266C32.7042 22.9266 32.7734 24.5118 32.635 25.7613C32.6211 25.917 32.6004 26.0658 32.5762 26.2077C32.365 27.4884 31.7663 29.2778 31.7663 29.2778C31.7663 29.2778 27.3706 32.3928 21.5559 32.5555C20.8429 32.5797 20.1092 32.5554 19.3581 32.4758C17.5722 32.282 16.1635 31.9463 15.0628 31.5725C14.1041 31.2471 13.3773 30.8872 12.8339 30.5549C12.3355 30.2538 11.9894 29.9769 11.7644 29.7692C11.6536 29.6723 11.574 29.5927 11.5152 29.5339C11.3594 28.2187 11.3664 26.7615 11.446 25.6124Z" stroke="#002140" stroke-width="0.65" stroke-linecap="round" stroke-linejoin="round"/>
<path d="M16.8419 40.9182C16.6723 41.3889 17.1604 41.6105 17.3265 41.7004C18.5483 42.3684 20.0192 42.6073 21.3622 42.6661C22.847 42.7353 24.2211 42.5934 25.6747 42.2958C30.1846 41.3716 32.2751 38.3328 36.5427 36.6126C36.8023 36.5087 37.0757 36.4015 37.2591 36.1903C37.4426 35.9827 37.5672 35.2489 37.138 34.9062" stroke="#002140" stroke-width="0.65" stroke-linecap="round" stroke-linejoin="round"/>
<path d="M40.4882 20.0088C40.2702 21.0783 39.2664 21.7774 38.3354 22.3485C37.4043 22.9161 36.3868 23.5737 36.0995 24.6259C35.8122 25.692 36.4733 26.893 37.4839 27.3395C38.4738 27.7721 39.6852 27.5264 40.5194 26.8307C40.5401 26.8203 40.5574 26.803 40.5782 26.7857" stroke="#002140" stroke-width="0.65" stroke-linecap="round" stroke-linejoin="round"/>
<path d="M27.0834 15.9459C27.0834 16.6 27.3222 17.3061 27.8794 17.6418C28.7793 18.1852 29.9942 17.5553 30.9668 17.9429C31.8043 18.2787 32.1851 19.2374 32.8496 19.8535C33.3099 20.2792 33.9399 20.5388 34.5663 20.4938C35.1963 20.4523 35.8054 20.0854 36.0858 19.5212C36.2623 19.1716 36.3038 18.7667 36.3038 18.3756C36.3038 16.7627 35.5943 15.1602 34.4002 14.0769C32.1955 12.0798 27.1007 11.9344 27.0834 15.9459Z" stroke="#002140" stroke-width="0.65" stroke-linecap="round" stroke-linejoin="round"/>
<path d="M19.9188 11.8577C19.1885 12.9584 18.9428 13.9205 18.9497 15.1735C18.9532 16.4264 19.6489 17.7693 20.8533 18.1189C21.241 18.2331 21.6529 18.2331 22.0578 18.2366C22.4247 18.24 22.8054 18.24 23.1481 18.112C24.0999 17.752 24.4391 16.5545 24.3352 15.5473C24.2279 14.5366 23.8438 13.9725 23.8299 12.9584C23.8091 11.5427 24.3179 9.90563 25.294 9.17188" stroke="#002140" stroke-width="0.65" stroke-linecap="round" stroke-linejoin="round"/>
<path d="M32.1575 37.0206C32.6386 35.5254 31.4341 33.8398 32.0052 32.3792C32.4932 31.1401 34.2134 30.6902 35.3729 31.3444C36.5323 31.995 37.0757 33.466 36.875 34.7813L37.0411 34.2206" stroke="#002140" stroke-width="0.65" stroke-linecap="round" stroke-linejoin="round"/>
<path d="M22.4869 41.6651C22.5112 41.6685 22.5319 41.6685 22.5562 41.6685C23.3591 41.6685 24.0237 40.554 24.0237 39.7441C24.0271 38.9065 23.6706 38.107 23.6153 37.2729C23.5426 36.1826 24.0998 34.992 25.1243 34.6113C25.9758 34.2929 26.9795 34.6009 27.6371 35.2308C28.2947 35.8608 28.6408 36.7607 28.7689 37.6605C28.852 38.2455 28.8381 38.8789 28.5093 39.3703" stroke="#002140" stroke-width="0.65" stroke-linecap="round" stroke-linejoin="round"/>
<path d="M13.7892 34.7055C15.0698 35.2869 16.5615 34.1967 17.9356 34.4909C19.1851 34.7574 19.9465 36.173 19.7942 37.4398C19.6419 38.7065 18.7732 39.7864 17.7522 40.5478C17.6276 40.6413 17.4891 40.7313 17.3334 40.7347" stroke="#002140" stroke-width="0.65" stroke-linecap="round" stroke-linejoin="round"/>
</g>
<defs>
<clipPath id="clip0_26_81643">
<rect width="52" height="52" fill="white"/>
</clipPath>
</defs>
</svg>

<svg xmlns="http://www.w3.org/2000/svg" width="52" height="52" fill="none" viewBox="0 0 52 52"><g clip-path="url(#a)"><path fill="#f68dfe" d="M0 0h52v52H0z"/><path fill="#f68dfe" d="M26 52c14.36 0 26-11.64 26-26S40.36 0 26 0 0 11.64 0 26s11.64 26 26 26"/><path fill="#f68dfe" stroke="#002140" stroke-miterlimit="10" stroke-width=".65" d="M26 46.767c11.47 0 20.767-9.298 20.767-20.767S37.469 5.233 26 5.233C14.53 5.233 5.233 14.531 5.233 26c0 11.47 9.298 20.767 20.767 20.767Z"/><path fill="#f9b5fe" d="M37.12 34.854c-.065.024-.127.045-.19.073l-.055-.146c.2-1.315-.343-2.786-1.502-3.437-1.16-.654-2.88-.204-3.368 1.035-.571 1.46.633 3.146.152 4.642l.212.332c-1.226.775-2.444 1.582-3.707 2.291l-.153-.273c.33-.492.343-1.125.26-1.71-.128-.9-.474-1.8-1.132-2.43s-1.661-.938-2.513-.62c-1.024.381-1.581 1.572-1.509 2.662.056.834.412 1.634.409 2.471 0 .81-.665 1.925-1.468 1.925v.024a13.2 13.2 0 0 1-5.333-.644l.11-.315c.156-.003.295-.093.42-.187 1.02-.761 1.889-1.84 2.041-3.108.152-1.266-.609-2.682-1.858-2.949-1.375-.294-2.866.797-4.147.215l-.453.076a41 41 0 0 1-.502-4.222c.543.328 1.27.688 2.229 1.014 1.1.374 2.51.71 4.295.903q1.128.118 2.198.08c5.815-.163 10.21-3.278 10.21-3.278s.599-1.79.81-3.07q.037-.213.059-.446c.138-1.25.07-2.835.07-2.835-.804-.246-1.762-.464-2.815-.654a60 60 0 0 0-4.638-.637 105 105 0 0 0-6.742-.46c-1.942-.073-3.634-.077-4.78-.028v-.014c1-3.326 2.804-6.393 5.424-8.663.253-.218.505-.43.758-.623l.007.01c-.73 1.1-.976 2.063-.97 3.316.004 1.253.7 2.596 1.904 2.945.388.115.8.115 1.205.118.367.004.747.004 1.09-.125.952-.36 1.291-1.557 1.187-2.564-.107-1.01-.491-1.575-.505-2.59-.02-1.415.488-3.052 1.464-3.786l-.028-.093q.788-.212 1.624-.329c4.129-.599 8.42 1.374 10.912 4.725 1.426 1.914 2.306 4.17 2.717 6.527l-.03.007c-.219 1.07-1.222 1.769-2.153 2.34-.932.567-1.95 1.225-2.236 2.277-.288 1.066.373 2.267 1.384 2.714.99.432 2.201.187 3.035-.509-.398 2.596-1.138 4.932-1.972 7.521v.055c-.481.122-.96.27-1.426.447M36.087 19.52c.176-.35.218-.754.218-1.146 0-1.612-.71-3.215-1.904-4.298-2.205-1.997-7.3-2.143-7.317 1.869 0 .654.24 1.36.796 1.696.9.543 2.115-.087 3.088.3.837.337 1.218 1.295 1.883 1.911.46.426 1.09.686 1.716.64.63-.04 1.24-.408 1.52-.972"/><path fill="#fcdcff" d="M21.556 32.556q-1.07.038-2.198-.08c-1.786-.194-3.195-.53-4.295-.903l.02-.056 14.755-8.954.052-.29c1.052.19 2.011.408 2.814.654 0 0 .07 1.585-.069 2.834l-.173-.017-10.913 6.514zm-10.041-3.022c-.156-1.315-.149-2.772-.069-3.921h.024l7.037-4.392v-.045c2.087.076 4.458.225 6.745.46l-.01.097-13.346 7.971-.132.066c-.11-.097-.19-.177-.249-.236"/><path fill="#002140" d="M37.138 34.905c.43.343.305 1.077.121 1.285-.183.21-.457.318-.716.422-4.268 1.72-6.358 4.759-10.868 5.683-1.454.298-2.828.44-4.313.37-1.343-.059-2.814-.297-4.035-.965-.167-.09-.655-.312-.485-.783q.189.068.38.132c1.71.575 3.541.8 5.338.644a12.5 12.5 0 0 0 2.478-.46c1.27-.378 2.464-.942 3.624-1.59 1.263-.709 2.481-1.515 3.707-2.29l.17-.108c1.394-.879 2.855-1.727 4.391-2.319.063-.028.125-.048.19-.073zm-4.562-8.697c-.21 1.28-.81 3.07-.81 3.07s-4.395 3.115-10.21 3.278l-.007-.298 10.913-6.514.173.017a6 6 0 0 1-.059.447m-2.686-3.935-.052.29-14.754 8.954-.021.056a11 11 0 0 1-2.23-1.018 6.6 6.6 0 0 1-1.069-.786l.132-.065 13.346-7.971.01-.097c1.634.166 3.223.377 4.638.637M11.47 25.27c.128-1.492.599-3.153.81-3.963.208-.076.716-.128 1.45-.16 1.146-.048 2.838-.044 4.78.028v.045l-7.04 4.392h-.024a10 10 0 0 1 .024-.342"/><path stroke="#002140" stroke-linecap="round" stroke-linejoin="round" stroke-width=".65" d="M13.73 21.134c1-3.326 2.804-6.393 5.424-8.663.253-.218.505-.43.758-.623 1.769-1.402 3.489-2.278 5.354-2.77q.788-.21 1.624-.328c4.129-.599 8.42 1.374 10.913 4.725 1.425 1.914 2.305 4.17 2.717 6.527.311 1.765.363 3.586.186 5.365q-.072.747-.187 1.464c-.398 2.596-1.138 4.932-1.972 7.521m-24.177 5.33a70 70 0 0 1-1.034-4.9 41 41 0 0 1-.502-4.223m1.582 9.168c.765.481 1.578.876 2.426 1.187q.189.074.38.135c1.71.575 3.541.8 5.338.644a12.5 12.5 0 0 0 2.478-.46c1.27-.378 2.464-.942 3.624-1.59 1.263-.709 2.481-1.515 3.706-2.29l.17-.108c1.395-.879 2.856-1.727 4.392-2.319.063-.027.125-.048.19-.072q.703-.266 1.43-.447"/><path stroke="#002140" stroke-linecap="round" stroke-linejoin="round" stroke-width=".65" d="M11.446 25.612q.01-.176.024-.342c.128-1.492.599-3.153.81-3.963.208-.076.716-.128 1.45-.16 1.146-.048 2.838-.044 4.78.028 2.084.076 4.455.225 6.742.46a60 60 0 0 1 4.638.637c1.052.19 2.011.409 2.814.655 0 0 .07 1.585-.069 2.834a6 6 0 0 1-.059.447c-.211 1.28-.81 3.07-.81 3.07s-4.395 3.115-10.21 3.278q-1.07.038-2.198-.08c-1.786-.194-3.195-.53-4.295-.903a11 11 0 0 1-2.23-1.018 6.6 6.6 0 0 1-1.318-1.021c-.156-1.315-.149-2.772-.069-3.922m5.396 15.306c-.17.47.318.693.485.782 1.221.668 2.692.907 4.035.966 1.485.07 2.86-.073 4.313-.37 4.51-.924 6.6-3.963 10.868-5.683.26-.104.533-.212.716-.423.184-.207.308-.941-.121-1.284m3.35-14.897c-.218 1.07-1.222 1.768-2.153 2.34-.93.567-1.948 1.225-2.236 2.277-.287 1.066.374 2.267 1.385 2.714.99.432 2.201.186 3.035-.51.021-.01.038-.027.06-.044m-13.496-10.84c0 .654.24 1.36.796 1.696.9.543 2.115-.087 3.088.3.837.337 1.218 1.295 1.883 1.912.46.425 1.09.685 1.716.64.63-.042 1.24-.409 1.52-.973.176-.35.218-.754.218-1.145a5.9 5.9 0 0 0-1.904-4.3c-2.204-1.996-7.3-2.142-7.317 1.87m-7.164-4.088c-.73 1.1-.976 2.063-.97 3.316.004 1.252.7 2.595 1.904 2.945.388.114.8.114 1.205.118.367.003.747.003 1.09-.125.952-.36 1.291-1.557 1.187-2.565-.107-1.01-.491-1.575-.505-2.589-.02-1.415.488-3.052 1.464-3.786"/><path stroke="#002140" stroke-linecap="round" stroke-linejoin="round" stroke-width=".65" d="M32.158 37.02c.48-1.495-.724-3.18-.153-4.64.488-1.24 2.208-1.69 3.368-1.036 1.16.651 1.703 2.122 1.502 3.437l.166-.56m-14.554 7.444q.034.005.07.004c.802 0 1.467-1.115 1.467-1.925.003-.837-.353-1.637-.409-2.471-.072-1.09.485-2.281 1.51-2.662.85-.318 1.855-.01 2.512.62.658.63 1.004 1.53 1.132 2.43.083.584.07 1.218-.26 1.71M13.79 34.706c1.28.58 2.771-.51 4.146-.215 1.25.266 2.01 1.682 1.858 2.949s-1.02 2.346-2.042 3.108c-.124.093-.263.183-.419.187"/></g><defs><clipPath id="a"><path fill="#fff" d="M0 0h52v52H0z"/></clipPath></defs></svg>
